assets/images/Timerkids/Timer_logo.svg

<svg width="167" height="31" viewBox="0 0 167 31" fill="none" xmlns="http://www.w3.org/2000/svg">
<path fill-rule="evenodd" clip-rule="evenodd" d="M120.608 5.44942C120.402 5.58291 120.031 5.89452 119.495 6.38401C119.371 6.4953 119.217 6.69559 119.031 6.9849C118.825 7.31867 118.67 7.54119 118.567 7.65248C116.3 10.0112 115.239 11.1016 115.383 10.9236C115.177 11.1906 114.837 11.7469 114.363 12.5925L113.188 14.6287C113.105 14.7844 112.796 15.1516 112.26 15.7301C111.827 16.2197 111.611 16.5313 111.611 16.6648C111.611 17.3101 112.178 18.2447 113.312 19.4687C114.548 20.4477 115.754 21.8274 116.929 23.6076L119.619 27.6131C119.206 27.6131 118.516 27.6576 117.547 27.7466L116.063 27.8802C115.465 27.8802 114.754 27.3795 113.93 26.3781C113.703 26.1111 113.353 25.6549 112.879 25.0096C112.405 24.342 112.044 23.8636 111.797 23.5743L108.643 19.5688C107.324 20.993 106.685 21.8831 106.726 22.2391C106.912 23.6187 106.85 25.5325 106.541 27.9803H103.449C103.202 27.8246 103.119 27.3238 103.202 26.4782C103.346 25.0319 103.418 24.3865 103.418 24.5423C103.418 24.4533 103.356 24.0972 103.232 23.4741C103.088 22.851 103.016 22.4727 103.016 22.3392C103.016 22.0944 103.068 21.4268 103.171 20.3365C103.253 19.3351 103.284 18.5563 103.263 18C103.243 17.5772 103.294 16.8428 103.418 15.7969V11.8582C103.15 10.3895 103.016 9.12116 103.016 8.05298C103.016 6.65109 103.232 5.61626 103.665 4.94868L105.644 5.11561C106.448 5.20461 106.994 5.43827 107.283 5.81657C107.241 6.77343 107.138 8.27547 106.973 10.3227L106.757 13.2267C106.757 14.1836 106.85 15.0626 107.035 15.8637C107.674 15.1738 109.055 13.5049 111.178 10.8568C113.219 8.31996 114.754 6.50645 115.785 5.41607C116.197 5.01547 116.867 4.81519 117.795 4.81519C119.691 4.81519 120.629 4.82633 120.608 4.84863V5.44942V5.44942Z" fill="#004585"/>
<path fill-rule="evenodd" clip-rule="evenodd" d="M128.094 23.0737C128.165 25.1852 128.022 26.7898 127.878 27.8803C127.486 27.9693 126.992 28.0138 126.394 28.0138C125.528 28.0138 124.869 27.8247 124.415 27.4464C124.374 27.1571 124.374 26.712 124.384 26.1112C124.394 25.4885 124.388 25.0522 124.353 24.8094L124.137 23.3073C124.05 22.7035 123.973 22.361 123.982 22.2726L124.353 18.7344C124.374 18.5342 124.349 18.2006 124.291 17.733C124.226 17.1998 124.202 16.8535 124.199 16.6983C124.182 15.9862 124.231 15.0416 124.322 13.8611L124.539 11.0572C124.592 10.3683 124.572 9.43232 124.508 8.25336C124.428 6.78487 124.384 5.81668 124.384 5.34938C124.384 5.14907 124.467 4.99337 124.632 4.88208C125.209 4.97107 126.26 4.97107 127.785 4.88208C127.765 4.94878 127.754 5.39388 127.754 6.21724C127.754 6.35076 127.726 6.72973 127.662 7.35212C127.603 7.9086 127.586 8.31974 127.6 8.58717C127.606 8.72006 127.631 8.94349 127.692 9.25475C127.754 9.56601 127.785 9.76714 127.785 9.85554V13.7943L128.094 23.0737V23.0737Z" fill="#F8A600"/>
<path fill-rule="evenodd" clip-rule="evenodd" d="M144.758 14.7622C144.936 13.5086 144.611 12.6607 144.325 12.2588C143.581 11.215 142.42 10.3829 140.831 9.78878C140.339 9.60468 139.635 9.38692 138.729 9.1212C137.74 8.83139 137.049 8.62046 136.657 8.48697C136.369 9.55505 136.224 10.3117 136.224 10.7567C136.224 15.8971 136.358 20.281 136.626 23.9081C139.285 23.7078 141.327 22.896 142.748 21.4714C143.923 20.2932 144.51 18.7232 144.51 16.765C144.51 16.5424 144.558 16.1652 144.634 15.6301L144.758 14.7622V14.7622ZM148.406 17.3658C148.406 19.8581 148.046 21.7288 147.324 22.9735C146.316 24.7099 144.363 25.9886 141.48 26.8454C139.499 27.4343 138.409 27.7467 138.203 27.7467H132.576V26.5451C132.576 26.7231 132.69 26.0232 132.885 24.4422C133.081 22.864 133.305 21.0428 133.164 19.0014L132.483 9.22124C132.423 8.3559 132.659 6.92929 133.009 4.94872C133.112 4.79303 133.246 4.71509 133.411 4.71509C133.638 4.71509 135.307 4.9543 138.42 5.41611C141.902 5.93279 144.501 7.35156 146.211 9.68864C147.675 11.6901 148.406 14.2504 148.406 17.3658V17.3658Z" fill="#3DA627"/>
<path fill-rule="evenodd" clip-rule="evenodd" d="M166.217 20.4838C166.217 21.8412 165.874 23.2815 165.166 24.7897C164.371 26.4845 163.404 27.5522 162.291 27.9941C162.231 28.018 161.796 28.0275 160.993 28.0275C156.582 28.0275 153.804 26.5799 152.738 23.6548C152.198 22.1753 151.965 21.4407 151.965 21.4852C151.965 21.3072 152.051 21.0337 152.181 20.6507C152.338 20.1893 152.48 19.9497 152.645 19.9497C153.572 19.9497 154.634 20.4505 155.829 21.4518C155.726 22.4531 156.024 23.1975 156.695 23.7216C157.218 24.1307 157.859 24.3558 158.643 24.3558C159.344 24.3558 160.071 24.0503 160.807 23.4212C161.553 22.7834 161.92 22.1305 161.92 21.4852C161.92 19.883 161.149 18.8363 159.601 18.3809C156.843 17.5694 155.469 17.1904 155.489 17.2127C155.427 17.1682 155.262 17.1325 154.994 17.1125C154.686 17.0895 154.476 17.0767 154.376 17.0457C153.55 16.789 152.941 15.8739 152.521 14.342C152.222 13.2497 152.057 12.2058 152.057 11.2044C152.057 9.00143 153.086 7.31565 155.149 6.16421C156.671 5.31458 158.292 4.89575 160.003 4.89575C160.993 4.89575 162.214 5.66983 163.651 7.23233C165.099 8.80594 165.816 10.1363 165.816 11.2044C165.816 11.4715 165.749 11.7484 165.63 12.0389C165.503 12.3478 165.362 12.5062 165.197 12.5062C164.888 12.5062 164.148 12.309 162.971 11.9388C162.809 11.8878 162.318 11.2979 161.487 10.1697C160.959 9.45232 160.209 9.10157 159.261 9.10157C158.457 9.10157 157.794 9.50901 157.252 10.3032C156.806 10.954 156.571 11.6161 156.571 12.3059C156.571 13.3296 157.211 14.0627 158.488 14.509C158.735 14.5953 159.242 14.7303 160.003 14.9095C160.559 15.0404 160.922 15.1648 161.085 15.2767C161.147 15.3191 161.302 15.3578 161.549 15.3769C161.857 15.4007 162.07 15.4015 162.167 15.4436L163.713 16.1111C164.762 16.5638 165.51 17.4056 165.97 18.648C166.127 19.0731 166.217 19.6827 166.217 20.4838V20.4838Z" fill="#00A2BF"/>
<path fill-rule="evenodd" clip-rule="evenodd" d="M16.9485 4.63498V9.14107H11.5409V27.2518H6.29297V9.14107H0.852478V4.59741H16.9485V4.63498ZM24.268 4.63498V27.2518H19.0858V4.59741H24.268V4.63498V4.63498ZM38.1947 27.2254L32.9369 9.0449V27.2518H28.5738V4.59741H36.6095L40.3919 18.0222L44.3914 4.59741H52.4375V27.2518H47.2223V9.03806L41.7983 27.2518H38.2024L38.1947 27.2254ZM72.3893 8.97177H62.0349V13.5344H70.1955V17.841H62.0349V22.7082H72.4242V27.2518H56.7542V4.59741H72.4242V8.97177H72.3893V8.97177Z" fill="#050109"/>
<path fill-rule="evenodd" clip-rule="evenodd" d="M97.245 4.42847H93.1175C94.1932 6.12962 94.7948 8.26503 94.8577 10.7945C94.8577 17.2667 92.0366 19.8843 88.51 21.2168L93.6738 27.8241H97.245V4.42847V4.42847ZM78.4581 27.8241H84.0784L79.8262 22.0734H78.4581V27.8241ZM78.4581 7.79612V15.3631H83.1763C85.7329 15.3631 86.9231 13.6499 86.9231 11.4607C86.9231 9.12877 85.5566 7.79612 83.1763 7.79612H78.4581Z" fill="#E30016"/>
<path fill-rule="evenodd" clip-rule="evenodd" d="M130.242 0C130.856 0 131.353 0.371373 131.353 1.17928C131.353 1.98721 130.987 2.57121 130.373 2.57121C129.759 2.57121 129.13 2.19984 129.13 1.39191C129.13 0.584065 129.628 0 130.242 0V0Z" fill="#F8A600"/>
<path fill-rule="evenodd" clip-rule="evenodd" d="M151.4 27.9589C152.104 28.1726 152.564 28.7718 152.323 29.6984C152.082 30.625 151.487 31.1673 150.783 30.9536C150.079 30.7399 149.468 30.095 149.709 29.1684C149.951 28.2418 150.696 27.7452 151.4 27.9589V27.9589Z" fill="#31B7A6"/>
<path fill-rule="evenodd" clip-rule="evenodd" d="M118.514 20.3148C119.017 19.872 119.654 19.8169 120.154 20.4781C120.654 21.1391 120.715 21.8814 120.213 22.3242C119.71 22.7671 118.966 22.9169 118.466 22.2558C117.966 21.5947 118.012 20.7577 118.514 20.3148Z" fill="#004585"/>
<path fill-rule="evenodd" clip-rule="evenodd" d="M148.522 26.1461C148.824 26.2379 149.022 26.4953 148.918 26.8933C148.815 27.2913 148.559 27.5242 148.257 27.4324C147.954 27.3406 147.692 27.0636 147.796 26.6656C147.899 26.2676 148.219 26.0544 148.522 26.1461V26.1461Z" fill="#0EA42B"/>
</svg>

<svg xmlns="http://www.w3.org/2000/svg" width="167" height="31" fill="none" viewBox="0 0 167 31"><path fill="#004585" fill-rule="evenodd" d="M120.608 5.45c-.206.133-.577.445-1.113.934-.124.111-.278.312-.464.6-.206.335-.361.557-.464.668-2.267 2.36-3.328 3.45-3.184 3.272-.206.267-.546.823-1.02 1.668l-1.175 2.037c-.083.155-.392.523-.928 1.101-.433.49-.649.801-.649.935 0 .645.567 1.58 1.701 2.804 1.236.979 2.442 2.358 3.617 4.139l2.69 4.005c-.413 0-1.103.045-2.072.134l-1.484.133c-.598 0-1.309-.5-2.133-1.502a27.65 27.65 0 0 1-1.051-1.368 22.566 22.566 0 0 0-1.082-1.436l-3.154-4.005c-1.319 1.424-1.958 2.314-1.917 2.67.186 1.38.124 3.293-.185 5.741h-3.092c-.247-.155-.33-.656-.247-1.502.144-1.446.216-2.091.216-1.936 0-.089-.062-.445-.186-1.068-.144-.623-.216-1.001-.216-1.135 0-.245.052-.912.155-2.002.082-1.002.113-1.78.092-2.337-.02-.423.031-1.157.155-2.203v-3.939c-.268-1.469-.402-2.737-.402-3.805 0-1.402.216-2.437.649-3.104l1.979.167c.804.089 1.35.322 1.639.7-.042.957-.145 2.46-.31 4.507l-.216 2.904c0 .957.093 1.836.278 2.637.639-.69 2.02-2.36 4.143-5.007 2.041-2.537 3.576-4.35 4.607-5.44.412-.402 1.082-.602 2.01-.602 1.896 0 2.834.011 2.813.034v.6z" clip-rule="evenodd"/><path fill="#F8A600" fill-rule="evenodd" d="M128.094 23.074a28.926 28.926 0 0 1-.216 4.806c-.392.09-.886.134-1.484.134-.866 0-1.525-.19-1.979-.568-.041-.289-.041-.734-.031-1.335.01-.623.004-1.059-.031-1.302l-.216-1.502c-.087-.604-.164-.946-.155-1.034l.371-3.539c.021-.2-.004-.533-.062-1.001-.065-.533-.089-.88-.092-1.035-.017-.712.032-1.656.123-2.837l.217-2.804c.053-.689.033-1.625-.031-2.804-.08-1.468-.124-2.436-.124-2.904 0-.2.083-.356.248-.467.577.09 1.628.09 3.153 0-.02.067-.031.512-.031 1.335 0 .134-.028.513-.092 1.135-.059.557-.076.968-.062 1.235.006.133.031.356.092.668.062.311.093.512.093.6v3.94l.309 9.279z" clip-rule="evenodd"/><path fill="#3DA627" fill-rule="evenodd" d="M144.758 14.762c.178-1.253-.147-2.101-.433-2.503-.744-1.044-1.905-1.876-3.494-2.47-.492-.184-1.196-.402-2.102-.668-.989-.29-1.68-.5-2.072-.634-.288 1.068-.433 1.825-.433 2.27 0 5.14.134 9.524.402 13.151 2.659-.2 4.701-1.012 6.122-2.437 1.175-1.178 1.762-2.748 1.762-4.706 0-.223.048-.6.124-1.135l.124-.868zm3.648 2.604c0 2.492-.36 4.363-1.082 5.608-1.008 1.736-2.961 3.015-5.844 3.871-1.981.59-3.071.902-3.277.902h-5.627v-1.202c0 .178.114-.522.309-2.103.196-1.578.42-3.4.279-5.44l-.681-9.78c-.06-.866.176-2.293.526-4.273.103-.156.237-.234.402-.234.227 0 1.896.24 5.009.701 3.482.517 6.081 1.936 7.791 4.273 1.464 2.001 2.195 4.561 2.195 7.677z" clip-rule="evenodd"/><path fill="#00A2BF" fill-rule="evenodd" d="M166.217 20.484c0 1.357-.343 2.797-1.051 4.306-.795 1.695-1.762 2.762-2.875 3.204-.06.024-.495.034-1.298.034-4.411 0-7.189-1.448-8.255-4.373-.54-1.48-.773-2.214-.773-2.17 0-.178.086-.451.216-.834.157-.462.299-.701.464-.701.927 0 1.989.5 3.184 1.502-.103 1.001.195 1.745.866 2.27.523.409 1.164.634 1.948.634.701 0 1.428-.306 2.164-.935.746-.638 1.113-1.29 1.113-1.936 0-1.602-.771-2.649-2.319-3.104-2.758-.812-4.132-1.19-4.112-1.168-.062-.045-.227-.08-.495-.1-.308-.023-.518-.036-.618-.067-.826-.257-1.435-1.172-1.855-2.704-.299-1.092-.464-2.136-.464-3.138 0-2.203 1.029-3.888 3.092-5.04a9.809 9.809 0 0 1 4.854-1.268c.99 0 2.211.774 3.648 2.336 1.448 1.574 2.165 2.904 2.165 3.972 0 .268-.067.544-.186.835-.127.309-.268.467-.433.467-.309 0-1.049-.197-2.226-.567-.162-.051-.653-.641-1.484-1.77-.528-.717-1.278-1.067-2.226-1.067-.804 0-1.467.407-2.009 1.201-.446.651-.681 1.313-.681 2.003 0 1.024.64 1.757 1.917 2.203.247.086.754.221 1.515.4.556.131.919.256 1.082.368.062.042.217.08.464.1.308.024.521.024.618.067l1.546.667c1.049.453 1.797 1.295 2.257 2.537.157.425.247 1.035.247 1.836z" clip-rule="evenodd"/><path fill="#050109" fill-rule="evenodd" d="M16.948 4.635v4.506h-5.407v18.11H6.293V9.142H.853V4.597h16.095v.038zm7.32 0v22.617h-5.182V4.597h5.182v.038zm13.927 22.59l-5.258-18.18v18.207h-4.363V4.597h8.035l3.783 13.425 4-13.425h8.045v22.655h-5.215V9.038l-5.424 18.214h-3.596l-.007-.027zM72.389 8.972H62.035v4.562h8.16v4.307h-8.16v4.867h10.39v4.544h-15.67V4.597h15.67v4.375h-.036z" clip-rule="evenodd"/><path fill="#E30016" fill-rule="evenodd" d="M97.245 4.428h-4.127c1.075 1.702 1.677 3.837 1.74 6.366 0 6.473-2.821 9.09-6.348 10.423l5.164 6.607h3.571V4.428zM78.458 27.824h5.62l-4.252-5.75h-1.368v5.75zm0-20.028v7.567h4.718c2.557 0 3.747-1.713 3.747-3.902 0-2.332-1.366-3.665-3.747-3.665h-4.718z" clip-rule="evenodd"/><path fill="#F8A600" fill-rule="evenodd" d="M130.242 0c.614 0 1.111.371 1.111 1.18 0 .807-.366 1.391-.98 1.391s-1.243-.371-1.243-1.18c0-.807.498-1.391 1.112-1.391z" clip-rule="evenodd"/><path fill="#31B7A6" fill-rule="evenodd" d="M151.4 27.959c.704.214 1.164.813.923 1.74-.241.926-.836 1.468-1.54 1.255-.704-.214-1.315-.859-1.074-1.786.242-.926.987-1.423 1.691-1.21z" clip-rule="evenodd"/><path fill="#004585" fill-rule="evenodd" d="M118.514 20.315c.503-.443 1.14-.498 1.64.163s.561 1.403.059 1.846c-.503.443-1.247.593-1.747-.068s-.454-1.498.048-1.941z" clip-rule="evenodd"/><path fill="#0EA42B" fill-rule="evenodd" d="M148.522 26.146c.302.092.5.35.396.747-.103.398-.359.631-.661.54-.303-.092-.565-.37-.461-.767.103-.398.423-.612.726-.52z" clip-rule="evenodd"/></svg>
